build/assets/fonts/243a362ebddb29c473ace764e5b11e6b.svg

<svg width="100" height="60" viewBox="0 0 100 60" version="1.1" xmlns="http://www.w3.org/2000/svg" xmlns:xlink="http://www.w3.org/1999/xlink"><title>Cirrus-dark</title><desc>Created with Sketch.</desc><g id="Dark-Payment-badges" stroke="none" stroke-width="1" fill="none" fill-rule="evenodd" transform="translate(-610.000000, -164.000000)"><g id="Cirrus-dark" transform="translate(610.000000, 164.000000)"><rect id="Rectangle" fill="#006" x="0" y="0" width="100" height="60" rx="4"/><path d="M57.0150423,30.0003125 C57.0150423,40.921875 48.1030986,49.775 37.1097512,49.775 C26.1170329,49.775 17.2054038,40.921875 17.2054038,30.0003125 C17.2054038,19.08 26.1170329,10.22625 37.1097512,10.22625 C48.1030986,10.22625 57.0150423,19.08 57.0150423,30.0003125" id="Fill-374" fill="#339"/><path d="M63.8326854,10.22625 C58.6900423,10.22625 54.0035023,12.1646875 50.4707465,15.3446875 C49.7516761,15.9921875 49.0797887,16.6928125 48.4613756,17.4375 L52.4820047,17.4375 C53.0324742,18.1015625 53.5385915,18.7996875 53.9997277,19.5315625 L46.9436526,19.5315625 C46.5212066,20.2040625 46.1371362,20.9025 45.7971033,21.625625 L55.146277,21.625625 C55.4652347,22.30375 55.7473897,23.001875 55.9889671,23.7184375 L44.9534695,23.7184375 C44.7235305,24.4015625 44.5307089,25.0996875 44.3756338,25.8128125 L56.5664883,25.8128125 C56.8596526,27.1628125 57.0150423,28.5634375 57.0150423,30.0003125 C57.0150423,32.19625 56.6542488,34.30875 55.9889671,36.2821875 L44.9534695,36.2821875 C45.1956761,36.9990625 45.4775164,37.698125 45.7964742,38.37625 L55.146277,38.37625 C54.8053005,39.09875 54.4221737,39.7978125 53.998784,40.4703125 L46.9436526,40.4703125 C47.4044742,41.2009375 47.9115352,41.9003125 48.4613756,42.563125 L52.4813756,42.563125 C51.8639061,43.3090625 51.1913897,44.0096875 50.4713756,44.6571875 C54.0038169,47.8371875 58.6900423,49.775 63.8326854,49.775 C74.8257183,49.775 83.7373474,40.921875 83.7373474,30.0003125 C83.7373474,19.08 74.8257183,10.22625 63.8326854,10.22625" id="Fill-375" fill="#06C"/><path d="M81.0840845,41.0225 C81.0840845,40.67 81.372216,40.3846875 81.7267183,40.3846875 C82.0821643,40.3846875 82.3693521,40.67 82.3693521,41.0225 C82.3693521,41.3753125 82.0821643,41.6615625 81.7267183,41.6615625 C81.372216,41.6615625 81.0840845,41.3753125 81.0840845,41.0225 L81.0840845,41.0225 Z M81.7267183,41.5084375 C81.9972347,41.5084375 82.2155352,41.29125 82.2155352,41.0225 C82.2155352,40.7546875 81.9972347,40.538125 81.7267183,40.538125 C81.4574601,40.538125 81.2388451,40.7546875 81.2388451,41.0225 C81.2388451,41.29125 81.4574601,41.5084375 81.7267183,41.5084375 L81.7267183,41.5084375 Z M81.640216,41.3028125 L81.5087324,41.3028125 L81.5087324,40.7425 L81.7471643,40.7425 C81.7968638,40.7425 81.8471925,40.7425 81.89123,40.770625 C81.9368404,40.8015625 81.9626338,40.8553125 81.9626338,40.9103125 C81.9626338,40.974375 81.925831,41.03375 81.8654366,41.05625 L81.9686103,41.3028125 L81.8223427,41.3028125 L81.736784,41.08125 L81.640216,41.08125 L81.640216,41.3028125 L81.640216,41.3028125 Z M81.640216,40.9853125 L81.7128779,40.9853125 C81.7399296,40.9853125 81.7691831,40.9871875 81.7930892,40.974375 C81.8147934,40.9603125 81.8261174,40.9346875 81.8261174,40.9096875 C81.8261174,40.8884375 81.8129061,40.8640625 81.7943474,40.8525 C81.7710704,40.8390625 81.7345822,40.8425 81.7103615,40.8425 L81.640216,40.8425 L81.640216,40.9853125 L81.640216,40.9853125 Z" id="Fill-376" fill="#06C"/><path d="M35.9622582,25.4734375 C35.7845352,26.2490625 35.6914272,26.6884375 35.4504789,27.6328125 C33.953831,27.0021875 31.9469765,26.673125 30.4072347,27.6284375 C28.9543099,28.5471875 28.4632911,29.980625 28.5692958,31.5684375 C28.6762441,32.3325 29.2534507,33.07875 30.0662582,33.4025 C31.4754601,33.919375 32.8201784,33.7303125 34.3171408,32.9703125 C34.1041878,33.92625 33.9437653,34.676875 33.7578638,35.3603125 C31.9623897,35.8584375 30.2581362,36.0221875 28.4632911,35.429375 C26.8600094,34.8753125 25.5558685,33.4409375 25.4498638,31.893125 C25.0862394,29.4075 26.2834319,26.864375 28.719338,25.6971875 C30.9844413,24.6846875 33.5685023,24.860625 35.9622582,25.4734375" id="Fill-377" fill="#006"/><path d="M61.3260047,34.3075 C60.8526009,34.778125 60.0486009,35.8090625 57.8633944,35.8090625 C55.8732113,35.8090625 54.476277,34.3509375 55.1837089,31.076875 C55.1837089,31.07625 56.0065822,27.2225 56.0065822,27.2225 L59.0436009,27.2225 C59.0436009,27.2225 58.2188404,31.080625 58.2204131,31.076875 C57.939831,32.388125 58.0062019,33.3859375 59.346831,33.3859375 C60.9268357,33.3859375 61.3996103,32.436875 61.6981221,31.076875 C61.6959202,31.07875 62.5228826,27.2225 62.5228826,27.2225 L65.691385,27.2225 L64.328108,33.4184375 C64.1730329,34.1453125 64.0248779,34.915 63.9393192,35.6740625 L61.0875728,35.6740625 C61.0875728,35.6740625 61.2674977,34.641875 61.3260047,34.3075" id="Fill-378" fill="#006"/><path d="M66.699216,29.8953125 C66.699216,30.9671875 67.4075915,31.6996875 69.0174789,32.246875 C70.2602817,32.6784375 70.4553052,32.805 70.4553052,33.1803125 C70.4553052,33.715 69.9004319,33.941875 68.7026103,33.941875 C67.7907183,33.941875 66.943939,33.8515625 65.9637887,33.6165625 C65.9637887,33.6165625 65.5781455,35.3696875 65.5388263,35.5696875 C66.3909531,35.720625 67.8665258,35.8090625 68.7236854,35.8090625 C71.9396854,35.8090625 73.4309859,34.9159375 73.4309859,32.9890625 C73.4309859,31.83625 72.8056526,31.1575 71.2800657,30.6375 C69.9938545,30.2175 69.8513615,30.120625 69.8513615,29.7196875 C69.8513615,29.2709375 70.3593662,29.0328125 71.3476948,29.0328125 C71.9425164,29.0328125 72.7754554,29.0828125 73.5495728,29.1634375 L73.9767371,27.2025 C73.1865775,27.1090625 71.9827793,27.0340625 71.2882441,27.0340625 C67.8750188,27.0340625 66.6885211,28.339375 66.699216,29.8953125" id="Fill-379" fill="#006"/><polyline id="Fill-380" fill="#006" points="37.120446 27.2225 40.298385 27.2225 38.4878122 35.6740625 35.3092441 35.6740625 37.120446 27.2225"/><path d="M55.2736714,27.1865625 C53.0327887,26.8925 52.3933005,27.98625 51.7915587,28.53 C51.863277,28.09 51.9957042,27.6609375 51.9692817,27.2225 L49.0502207,27.2225 C48.6488498,29.8396875 47.9360704,32.488125 47.3783662,35.1053125 L47.2320986,35.6734375 L50.5368028,35.6734375 C50.9142676,33.9571875 51.3524413,31.36625 51.8579296,30.581875 C52.3627887,29.79875 53.2029624,29.1728125 54.3061033,29.549375 L55.2736714,27.1865625" id="Fill-381" fill="#006"/><path d="M48.3446761,27.1865625 C46.104108,26.8925 45.4649343,27.98625 44.8628779,28.53 C44.9349108,28.09 45.0667089,27.6609375 45.0406009,27.2225 L42.1218545,27.2225 C41.7204836,29.8396875 41.0073897,32.488125 40.45,35.1053125 L40.3037324,35.6734375 L43.6081221,35.6734375 C43.9859014,33.9571875 44.4240751,31.36625 44.9292488,30.581875 C45.4344225,29.79875 46.2742817,29.1728125 47.3774225,29.549375 L48.3446761,27.1865625" id="Fill-382" fill="#006"/><path d="M74.4051596,34.41625 C74.4051596,34.0634375 74.6929765,33.7771875 75.048108,33.7771875 C75.4029249,33.7771875 75.6910563,34.0634375 75.6910563,34.41625 C75.6910563,34.7690625 75.4029249,35.0546875 75.048108,35.0546875 C74.6929765,35.0546875 74.4051596,34.7690625 74.4051596,34.41625 L74.4051596,34.41625 Z M75.048108,34.9015625 C75.3176808,34.9015625 75.5369249,34.6840625 75.5369249,34.41625 C75.5369249,34.148125 75.3176808,33.9309375 75.048108,33.9309375 C74.7785352,33.9309375 74.5589765,34.148125 74.5589765,34.41625 C74.5589765,34.6840625 74.7785352,34.9015625 75.048108,34.9015625 L75.048108,34.9015625 Z M74.9612911,34.69625 L74.829493,34.69625 L74.829493,34.1346875 L75.0679249,34.1346875 C75.1173099,34.1346875 75.1685822,34.1359375 75.2119906,34.1640625 C75.2585446,34.1946875 75.2840235,34.2490625 75.2840235,34.30375 C75.2840235,34.3675 75.2469061,34.4265625 75.1861972,34.4490625 L75.29,34.69625 L75.1443615,34.69625 L75.0581737,34.4740625 L74.9612911,34.4740625 L74.9612911,34.69625 L74.9612911,34.69625 Z M74.9612911,34.3778125 L75.0342676,34.3778125 C75.0613192,34.3778125 75.0912019,34.3803125 75.1144789,34.3675 C75.1361831,34.3540625 75.1471925,34.3278125 75.1471925,34.3034375 C75.1471925,34.281875 75.1336667,34.256875 75.1160516,34.2453125 C75.0930892,34.2325 75.0556573,34.235625 75.0308075,34.235625 L74.9612911,34.235625 L74.9612911,34.3778125 L74.9612911,34.3778125 Z" id="Fill-383" fill="#FFF"/><path d="M36.5841315,24.855 C36.4064085,25.6315625 36.3129859,26.0709375 36.0726667,27.014375 C34.5757042,26.3846875 32.5688498,26.055625 31.029108,27.0103125 C29.5764977,27.92875 29.0857934,29.3625 29.191169,30.95 C29.2987465,31.7146875 29.8753239,32.460625 30.688446,32.7846875 C32.0973333,33.30125 33.4420516,33.111875 34.9393286,32.351875 C34.7263756,33.3084375 34.5656385,34.0590625 34.3797371,34.7428125 C32.584892,35.2403125 30.8800094,35.404375 29.0857934,34.8115625 C27.4818826,34.2575 26.1783709,32.823125 26.0720516,31.2746875 C25.7084272,28.789375 26.9053052,26.2459375 29.3415258,25.0790625 C31.6063146,24.0665625 34.190061,24.2421875 36.5841315,24.855" id="Fill-384" fill="#FFF"/><path d="M61.9481925,33.69 C61.4744742,34.160625 60.6701596,35.190625 58.4852676,35.190625 C56.4950845,35.190625 55.2305775,33.733125 55.9376948,30.45875 L56.7615117,26.605 L59.7988451,26.605 C59.7988451,26.605 58.9734554,30.4621875 58.9743991,30.45875 C58.6941315,31.7703125 58.7608169,32.768125 60.1017606,32.768125 C61.680507,32.768125 62.1542254,31.8190625 62.452108,30.45875 C62.4502207,30.46125 63.2771831,26.605 63.2771831,26.605 L66.3135728,26.605 L64.9496667,32.800625 C64.7949061,33.526875 64.6473803,34.2965625 64.561507,35.0565625 L61.7100751,35.0565625 C61.7100751,35.0565625 61.89,34.02375 61.9481925,33.69" id="Fill-385" fill="#FFF"/><path d="M67.3210892,29.2775 C67.3210892,30.349375 68.0294648,31.081875 69.6396667,31.62875 C70.882784,32.0603125 71.077493,32.1871875 71.077493,32.561875 C71.077493,33.0971875 70.5219906,33.324375 69.3247981,33.324375 C68.4129061,33.324375 67.5661268,33.2334375 66.585662,32.9990625 C66.585662,32.9990625 66.2000188,34.75125 66.160385,34.9521875 C67.0131408,35.1028125 68.4883991,35.190625 69.3458732,35.190625 C72.5615587,35.190625 74.0531737,34.2984375 74.0531737,32.3709375 C74.0531737,31.2178125 73.4281549,30.54 71.901939,30.02 C70.6154131,29.6 70.4729202,29.5021875 70.4729202,29.101875 C70.4729202,28.653125 70.981554,28.4153125 71.9701972,28.4153125 C72.5643897,28.4153125 73.3976432,28.4653125 74.1720751,28.5453125 L74.5982958,26.5840625 C73.8084507,26.490625 72.6046526,26.415625 71.9104319,26.415625 C68.4972066,26.415625 67.3100798,27.72125 67.3210892,29.2775" id="Fill-386" fill="#FFF"/><polyline id="Fill-387" fill="#FFF" points="37.8741174 26.605 40.9208873 26.605 39.1096854 35.0565625 36.0638592 35.0565625 37.8741174 26.605"/><path d="M55.8955446,26.5690625 C53.6549765,26.2746875 53.0158028,27.3684375 52.4134319,27.9121875 C52.4854648,27.4721875 52.6175775,27.0425 52.5911549,26.605 L49.8045211,26.605 C49.4034648,29.2215625 48.6900563,31.8696875 48.1329812,34.4875 L47.9867136,35.0553125 L51.1586761,35.0553125 C51.53677,33.3390625 51.9746291,30.748125 52.4801174,29.964375 C52.9849765,29.180625 53.8251502,28.555 54.927662,28.9315625 L55.8955446,26.5690625" id="Fill-388" fill="#FFF"/><path d="M48.9671784,26.5690625 C46.7262958,26.2746875 46.0871221,27.3684375 45.4847512,27.9121875 C45.556784,27.4721875 45.6892113,27.0425 45.6624742,26.605 L42.8758404,26.605 C42.474784,29.2215625 41.7620047,31.8696875 41.2039859,34.4875 L41.0580329,35.0553125 L44.2296808,35.0553125 C44.6080892,33.3390625 45.0456338,30.748125 45.5517512,29.964375 C46.0562958,29.180625 46.8964695,28.555 47.9992958,28.9315625 L48.9671784,26.5690625" id="Fill-389" fill="#FFF"/></g></g></svg>

<svg width="100" height="60" xmlns="http://www.w3.org/2000/svg"><g fill="none" fill-rule="evenodd"><rect fill="#006" width="100" height="60" rx="4"/><path d="M57.015 30c0 10.922-8.912 19.775-19.905 19.775S17.205 40.922 17.205 30c0-10.92 8.912-19.774 19.905-19.774S57.015 19.08 57.015 30" fill="#339"/><path d="M63.833 10.226a19.907 19.907 0 0 0-15.372 7.211h4.021c.55.665 1.057 1.363 1.518 2.095h-7.056c-.423.672-.807 1.37-1.147 2.094h9.35c.318.678.6 1.376.842 2.092H44.953c-.23.684-.422 1.382-.577 2.095h12.19c.294 1.35.449 2.75.449 4.187 0 2.196-.36 4.309-1.026 6.282H44.953c.243.717.525 1.416.843 2.094h9.35A19.754 19.754 0 0 1 54 40.47h-7.055c.46.73.968 1.43 1.517 2.093h4.02a19.784 19.784 0 0 1-2.01 2.094 19.904 19.904 0 0 0 13.362 5.118c10.993 0 19.904-8.853 19.904-19.775 0-10.92-8.911-19.774-19.904-19.774" fill="#06C"/><path d="M81.084 41.023a.64.64 0 0 1 .643-.638.64.64 0 0 1 .642.638.64.64 0 0 1-.642.639.641.641 0 0 1-.643-.64zm.643.485a.486.486 0 0 0 0-.97.486.486 0 1 0 0 .97zm-.087-.205h-.131v-.56h.238c.05 0 .1 0 .144.028.046.03.072.084.072.14a.154.154 0 0 1-.098.145l.104.247h-.147l-.085-.222h-.097v.222zm0-.318h.073c.027 0 .056.002.08-.01a.077.077 0 0 0 .033-.065.072.072 0 0 0-.032-.057c-.023-.014-.06-.01-.084-.01h-.07v.142z" fill="#06C"/><path d="M35.962 25.473c-.177.776-.27 1.215-.512 2.16-1.496-.63-3.503-.96-5.043-.005-1.453.92-1.944 2.353-1.838 3.94.107.765.684 1.51 1.497 1.835 1.41.516 2.754.327 4.251-.433-.213.956-.373 1.707-.56 2.39-1.795.498-3.499.662-5.294.07-1.603-.555-2.907-1.99-3.013-3.537-.364-2.486.833-5.029 3.27-6.196 2.264-1.012 4.849-.836 7.242-.224m25.364 8.834c-.473.471-1.277 1.502-3.463 1.502-1.99 0-3.387-1.458-2.68-4.732l.824-3.855h3.037l-.824 3.855c-.28 1.311-.214 2.309 1.127 2.309 1.58 0 2.053-.95 2.351-2.31-.002.003.825-3.854.825-3.854h3.168l-1.363 6.196a23.62 23.62 0 0 0-.389 2.256h-2.851l.238-1.367m5.374-4.412c0 1.072.708 1.805 2.317 2.352 1.243.431 1.438.558 1.438.933 0 .535-.555.762-1.752.762-.912 0-1.76-.09-2.74-.325 0 0-.385 1.753-.424 1.953.852.15 2.328.24 3.185.24 3.216 0 4.707-.894 4.707-2.82 0-1.154-.625-1.833-2.15-2.353-1.287-.42-1.43-.516-1.43-.917 0-.45.508-.687 1.497-.687.595 0 1.427.05 2.202.13l.427-1.96a27.709 27.709 0 0 0-2.689-.169c-3.413 0-4.6 1.305-4.589 2.861M37.12 27.223h3.178l-1.81 8.451h-3.179l1.811-8.451m18.154-.036c-2.241-.295-2.88.8-3.482 1.343.071-.44.204-.87.177-1.308H49.05c-.401 2.618-1.114 5.266-1.672 7.883l-.146.568h3.305c.377-1.716.815-4.307 1.32-5.091.506-.783 1.346-1.41 2.45-1.033l.967-2.362m-6.929 0c-2.24-.295-2.88.8-3.482 1.343.072-.44.204-.87.178-1.308h-2.92c-.4 2.618-1.114 5.266-1.671 7.883l-.146.568h3.304c.378-1.716.816-4.307 1.321-5.091.505-.783 1.345-1.41 2.448-1.033l.968-2.362" fill="#006"/><path d="M74.405 34.416c0-.353.288-.639.643-.639.355 0 .643.286.643.64a.64.64 0 0 1-.643.638.64.64 0 0 1-.643-.639zm.643.486c.27 0 .489-.218.489-.486a.487.487 0 0 0-.489-.485c-.27 0-.489.217-.489.485s.22.486.49.486zm-.087-.206h-.132v-.561h.239c.05 0 .1 0 .144.03.047.03.072.084.072.139a.153.153 0 0 1-.098.145l.104.247h-.146l-.086-.222h-.097v.222zm0-.318h.073c.027 0 .057.002.08-.01a.076.076 0 0 0 .033-.065.075.075 0 0 0-.03-.058c-.024-.012-.061-.01-.086-.01h-.07v.143zm-38.377-9.523c-.178.777-.271 1.216-.511 2.16-1.497-.63-3.504-.96-5.044-.005-1.453.919-1.943 2.352-1.838 3.94.108.765.684 1.51 1.497 1.835 1.41.516 2.754.327 4.251-.433-.213.956-.373 1.707-.56 2.39-1.794.498-3.499.662-5.293.07-1.604-.554-2.908-1.989-3.014-3.537-.364-2.486.833-5.03 3.27-6.196 2.264-1.012 4.848-.837 7.242-.224m25.364 8.835c-.474.47-1.278 1.5-3.463 1.5-1.99 0-3.254-1.457-2.547-4.731l.824-3.854h3.037l-.825 3.854c-.28 1.311-.213 2.31 1.128 2.31 1.579 0 2.052-.95 2.35-2.31-.002.002.825-3.854.825-3.854h3.037l-1.364 6.196a23.74 23.74 0 0 0-.388 2.256H61.71l.238-1.367m5.373-4.413c0 1.072.708 1.805 2.319 2.352 1.243.431 1.437.558 1.437.933 0 .535-.555.762-1.752.762-.912 0-1.759-.09-2.74-.325 0 0-.385 1.752-.425 1.953.853.15 2.328.239 3.186.239 3.216 0 4.707-.893 4.707-2.82 0-1.153-.625-1.831-2.151-2.351-1.287-.42-1.43-.518-1.43-.918 0-.449.51-.687 1.498-.687.594 0 1.428.05 2.202.13l.426-1.96a27.696 27.696 0 0 0-2.688-.17c-3.413 0-4.6 1.306-4.589 2.863m-29.447-2.673h3.047l-1.811 8.452h-3.046l1.81-8.452m18.022-.035c-2.241-.295-2.88.798-3.483 1.342.072-.44.205-.87.178-1.307h-2.786c-.402 2.617-1.115 5.265-1.672 7.882l-.146.568h3.172c.378-1.716.816-4.307 1.321-5.09.505-.784 1.345-1.41 2.448-1.033l.968-2.363m-6.929.001c-2.24-.295-2.88.798-3.482 1.342.072-.44.204-.87.177-1.307h-2.786c-.401 2.617-1.114 5.265-1.672 7.882l-.146.568h3.172c.378-1.716.816-4.307 1.322-5.09.504-.784 1.344-1.41 2.447-1.033l.968-2.363" fill="#FFF"/></g></svg>
